X:499
T:Teribus
S:Seonaid Lynn, Edinburgh
Z:Nigel Gatherer
M:2/4
L:1/8
K:D
 dA d>e | fa fd | g>f ed  | ce cA  |
 dA d>e | fa fd | g>f ea  | fd d2 :|
 a2 a>g | fa fd | g>f e>d | ce cA  |
1a2 a>g | fa fd | g>f ea  | fd d2 :|
2dA d>e | fa fd | g>f ea  | fd d2 |]
<end>
<start>
